static/asset/print.svg

<svg id="Layer_1" xmlns="http://www.w3.org/2000/svg" width="26" height="24"><style>.st1{fill:#7f7f7f}</style><g id="Page-1"><g id="Article-_x28_Text-Style-Revised_x29_-_x2013_-Desktop" transform="translate(-263 -355)"><g id="print" transform="translate(263 355)"><circle cx="18.5" cy="8.5" r="1.5" fill="none"/><path class="st1" d="M23 5H3C1.3 5 0 6.3 0 8v8c0 1.7 1.3 3 3 3h1v-7h18v7h1c1.7 0 3-1.3 3-3V8c0-1.7-1.3-3-3-3zm-4.5 5c-.8 0-1.5-.7-1.5-1.5S17.7 7 18.5 7s1.5.7 1.5 1.5-.7 1.5-1.5 1.5z"/><path id="Combined-Shape_1_" class="st1" d="M6 14h14v10H6V14zm2.5 5h9v-1h-9v1zm0 3h9v-1h-9v1z"/><path id="Rectangle-3-Copy" class="st1" d="M6 0h14v3H6z"/></g></g></g></svg>

<?xml version="1.0" encoding="utf-8"?>
<!-- Generator: Adobe Illustrator 19.2.0, SVG Export Plug-In . SVG Version: 6.00 Build 0)  -->
<svg version="1.1" id="Layer_1" xmlns="http://www.w3.org/2000/svg" xmlns:xlink="http://www.w3.org/1999/xlink" x="0px" y="0px"
	 width="26px" height="24px" viewBox="0 0 26 24" style="enable-background:new 0 0 26 24;" xml:space="preserve">
<style type="text/css">
	.st0{fill:none;}
	.st1{fill:#7F7F7F;}
</style>
<title>print</title>
<desc>Created with Sketch.</desc>
<g id="Page-1">
	<g id="Article-_x28_Text-Style-Revised_x29_-_x2013_-Desktop" transform="translate(-263.000000, -355.000000)">
		<g id="print" transform="translate(263.000000, 355.000000)">
			<g>
				<circle class="st0" cx="18.5" cy="8.5" r="1.5"/>
				<path class="st1" d="M23,5H3C1.3,5,0,6.3,0,8v8c0,1.7,1.3,3,3,3h1v-7h18v7h1c1.7,0,3-1.3,3-3V8C26,6.3,24.7,5,23,5z M18.5,10
					C17.7,10,17,9.3,17,8.5S17.7,7,18.5,7S20,7.7,20,8.5S19.3,10,18.5,10z"/>
			</g>
			<path id="Combined-Shape_1_" class="st1" d="M6,14h14v10H6V14z M8.5,19h9v-1h-9V19z M8.5,22h9v-1h-9V22z"/>
			<rect id="Rectangle-3-Copy" x="6" class="st1" width="14" height="3"/>
		</g>
	</g>
</g>
</svg>
